vendor/shopware/storefront/Resources/app/storefront/dist/assets/icon/default/sliders-horizontal.svg

<?xml version="1.0" encoding="UTF-8"?>
<svg width="20px" height="20px" viewBox="0 0 20 20" version="1.1" xmlns="http://www.w3.org/2000/svg" xmlns:xlink="http://www.w3.org/1999/xlink">
    <!-- Generator: Sketch 59 (86127) - https://sketch.com -->
    <title>icons/default/action/sliders</title>
    <desc>Created with Sketch.</desc>
    <g id="Mobile-Filter-Elements" stroke="none" stroke-width="1" fill="none" fill-rule="evenodd">
        <g id="Productlistig" transform="translate(-156.000000, -444.000000)" fill="#4A545B">
            <g id="Components/-Forms-/-Button/-large/-secondary-/-normal" transform="translate(28.000000, 432.000000)">
                <g id="Group" transform="translate(128.000000, 12.000000)">
                    <g id="icons/default/action/sliders" transform="translate(10.000000, 10.000000) rotate(90.000000) translate(-10.000000, -10.000000) ">
                        <path d="M3.33333333,0 C3.79357062,0 4.16666667,0.373096042 4.16666667,0.833333333 L4.16666667,0.833333333 L4.16693817,4.3090174 C5.13778999,4.65229106 5.83333333,5.57825244 5.83333333,6.66666667 C5.83333333,7.7550809 5.13778999,8.68104228 4.16693817,9.02431593 L4.16666667,19.1666667 C4.16666667,19.626904 3.79357062,20 3.33333333,20 C2.87309604,20 2.5,19.626904 2.5,19.1666667 L2.5,19.1666667 L2.4997285,9.02431593 C1.52887668,8.68104228 0.833333333,7.7550809 0.833333333,6.66666667 C0.833333333,5.57825244 1.52887668,4.65229106 2.4997285,4.3090174 L2.5,0.833333333 C2.5,0.373096042 2.87309604,0 3.33333333,0 Z M10,0 C10.4602373,0 10.8333333,0.373096042 10.8333333,0.833333333 L10.8333333,0.833333333 L10.8346101,11.8093731 C11.8049368,12.1529303 12.5,13.0786281 12.5,14.1666667 C12.5,15.2547052 11.8049368,16.180403 10.8346101,16.5239602 L10.8333333,19.1666667 C10.8333333,19.626904 10.4602373,20 10,20 C9.53976271,20 9.16666667,19.626904 9.16666667,19.1666667 L9.16666667,19.1666667 L9.16639516,16.5243159 C8.19554335,16.1810423 7.5,15.2550809 7.5,14.1666667 C7.5,13.0782524 8.19554335,12.1522911 9.16639516,11.8090174 L9.16666667,0.833333333 C9.16666667,0.373096042 9.53976271,0 10,0 Z M16.6666667,0 C17.126904,0 17.5,0.373096042 17.5,0.833333333 L17.5,0.833333333 L17.5,4.16666667 C17.5,4.21410651 17.4960359,4.26062049 17.4884209,4.30589544 C18.4653492,4.64462278 19.1666667,5.57374399 19.1666667,6.66666667 C19.1666667,7.7550809 18.4711233,8.68104228 17.5002715,9.02431593 L17.5,19.1666667 C17.5,19.626904 17.126904,20 16.6666667,20 C16.2064294,20 15.8333333,19.626904 15.8333333,19.1666667 L15.8333333,19.1666667 L15.8330618,9.02431593 C14.86221,8.68104228 14.1666667,7.7550809 14.1666667,6.66666667 C14.1666667,5.57374399 14.8679841,4.64462278 15.8451404,4.30478169 C15.8372974,4.26062049 15.8333333,4.21410651 15.8333333,4.16666667 L15.8333333,4.16666667 L15.8333333,0.833333333 C15.8333333,0.373096042 16.2064294,0 16.6666667,0 Z M10,13.3333333 C9.53976271,13.3333333 9.16666667,13.7064294 9.16666667,14.1666667 C9.16666667,14.626904 9.53976271,15 10,15 C10.4602373,15 10.8333333,14.626904 10.8333333,14.1666667 C10.8333333,13.7064294 10.4602373,13.3333333 10,13.3333333 Z M3.33333333,5.83333333 C2.87309604,5.83333333 2.5,6.20642938 2.5,6.66666667 C2.5,7.12690396 2.87309604,7.5 3.33333333,7.5 C3.79357062,7.5 4.16666667,7.12690396 4.16666667,6.66666667 C4.16666667,6.20642938 3.79357062,5.83333333 3.33333333,5.83333333 Z M16.6666667,5.83333333 C16.2064294,5.83333333 15.8333333,6.20642938 15.8333333,6.66666667 C15.8333333,7.12690396 16.2064294,7.5 16.6666667,7.5 C17.126904,7.5 17.5,7.12690396 17.5,6.66666667 C17.5,6.20642938 17.126904,5.83333333 16.6666667,5.83333333 Z" id="Shape"></path>
                    </g>
                </g>
            </g>
        </g>
    </g>
</svg>

<svg width="20" height="20" viewBox="0 0 20 20" xmlns="http://www.w3.org/2000/svg"><g id="Mobile-Filter-Elements" stroke="none" stroke-width="1" fill="none" fill-rule="evenodd"><g id="Productlistig" transform="translate(-156 -444)" fill="#4A545B"><g id="Components/-Forms-/-Button/-large/-secondary-/-normal" transform="translate(28 432)"><g id="Group" transform="translate(128 12)"><g id="icons/default/action/sliders" transform="rotate(90 10 10)"><path d="M3.3333 0a.8333.8333 0 0 1 .8334.8333l.0002 3.4757c.9709.3433 1.6664 1.2693 1.6664 2.3577 0 1.0884-.6955 2.0143-1.6664 2.3576l-.0002 10.1424a.8333.8333 0 0 1-1.6667 0L2.4997 9.0243C1.529 8.681.8333 7.7551.8333 6.6667S1.529 4.6523 2.4997 4.309L2.5.8333A.8333.8333 0 0 1 3.3333 0zM10 0a.8333.8333 0 0 1 .8333.8333l.0013 10.976c.9703.3436 1.6654 1.2693 1.6654 2.3574 0 1.088-.695 2.0137-1.6654 2.3573l-.0013 2.6427a.8333.8333 0 1 1-1.6666 0l-.0003-2.6424C8.1955 16.181 7.5 15.2551 7.5 14.1667s.6955-2.0144 1.6664-2.3577L9.1667.8333A.8333.8333 0 0 1 10 0zm6.6667 0A.8333.8333 0 0 1 17.5.8333v3.3334a.839.839 0 0 1-.0116.1392c.977.3387 1.6783 1.2678 1.6783 2.3608 0 1.0884-.6956 2.0143-1.6664 2.3576L17.5 19.1667a.8333.8333 0 1 1-1.6667 0l-.0002-10.1424c-.9709-.3433-1.6664-1.2692-1.6664-2.3576 0-1.093.7013-2.022 1.6784-2.362a.7927.7927 0 0 1-.0118-.138V.8333A.8333.8333 0 0 1 16.6667 0zM10 13.3333A.8333.8333 0 1 0 10 15a.8333.8333 0 0 0 0-1.6667zm-6.6667-7.5a.8333.8333 0 1 0 0 1.6667.8333.8333 0 0 0 0-1.6667zm13.3334 0a.8333.8333 0 1 0 0 1.6667.8333.8333 0 0 0 0-1.6667z" id="Shape"/></g></g></g></g></g></svg>
